X:0820402†(= 8, 156/)
T:[ID 2-18a]
T:Bezeichnung standardisiert: Menuet schwarz M\"ausel;
T:Menuet 14. schwarz M\"ausel
T:In dieser Quelle auch als: Menuet
C:Urheber unbekannt
C:Erstbeleg: 1767 (Datum in der schriftlichen Quelle)
C:Datum in der hier transkribierten schriftlichen Quelle: 1792
O:Deutschland; Westfalen; Dinker
S:"Tanzsammlung Dahlhoff" Staatsbibliothek zu Berlin, Musiksammlung, Mus. ms. 40182, Buch 08v, 040/†(= 8, 156/), PDF Nr: 1095
S:Scan online: http://resolver.staatsbibliothek-berlin.de/SBB0000969000001095
F:http://simonwascher.info/TradArchiv/Dahlhoff/ file-version 2017-11-21
Z:Erfassung in Capella Richmud Rollenbeck, Konversion nach MusicXML Joergen Lang, Konversion nach abc und abc Lektorat Simon Wascher
L:1/8
M:3/4
K:G
GAB2c2 | B4A2 | (3GABd2c2 | BABcBA | GAB2c2 | B4A2 | GBdBcA | G6 ::
A2B2c2 | B2c2d2 | g2d2c2 | BcdBG2 | GAB2c2 | B4A2 | GBdBcA | {A}G6 H:|

